_src/images/silos/ic_silo_map.svg

<svg height="50" viewBox="0 0 53 50" width="53" xmlns="http://www.w3.org/2000/svg"><path d="m715.882295 1517c1.27928 0 2.505987-.33055 3.680121-.99165l11.434663-6.36743c1.033939-.57411 1.783107-1.26566 2.247503-2.07464.464396-.80897.696594-1.76148.696594-2.85751v-33.01148c0-1.21782-.372393-2.19207-1.117179-2.92276-.744787-.73069-1.75682-1.09603-3.036101-1.09603-.543256 0-1.060225.10003-1.550908.3001s-1.051463.47408-1.682341.82203l-11.671243 6.44572-12.407266-7.2808c-1.139086-.6437-2.365793-.96555-3.680122-.96555-1.261756 0-2.409603.29576-3.443542.88727l-11.408377 6.39352c-1.033939.57412-1.783106 1.24826-2.247503 2.02245-.464396.77418-.696594 1.70929-.696594 2.80532v33.16806c0 1.23521.372393 2.21381 1.11718 2.9358.744786.72199 1.75682 1.08299 3.0361 1.08299.543256 0 1.064607-.09569 1.564052-.28706s1.055844-.45233 1.669198-.78288l11.30323-6.13257 12.433553 6.91545c1.226707.6611 2.479701.99165 3.758982.99165zm-28.432347-7.84314c-.378397 0-.567595-.26299-.567595-.78899v-27.64092c0-.43833.073099-.7846.219298-1.03883s.408497-.48655.786894-.69694l8.126935-4.76024c.120399-.0526.232198-.11397.335397-.1841s.214998-.1315.335398-.18409v30.27088l-8.642931 4.83914c-.223599.12273-.421397.18409-.593396.18409zm24.922601 0-.207391-.10948-.219959-.12237c-.15083-.08587-.29328-.16315-.427351-.23185l-8.949221-5.15221v-28.69781c.117312.06869.238814.13739.364505.20609.125692.06869.247193.14598.364505.23185l9.074912 5.4871zm5.882353 0v-29.40807l8.642931-4.72492c.189198-.12049.352597-.18073.490196-.18073.206398 0 .369797.07315.490196.21946s.180599.32274.180599.52929v26.82616c0 .43032-.0731.77027-.219299 1.01986-.146199.24958-.408496.47765-.786893.68421l-7.688339 4.41508c-.171999.10328-.352597.21086-.541796.32274-.189198.11189-.378397.21086-.567595.29692z" fill="#fff" transform="translate(-681 -1467)"/></svg>

<?xml version="1.0" encoding="UTF-8"?>
<svg width="53px" height="50px" viewBox="0 0 53 50" version="1.1" xmlns="http://www.w3.org/2000/svg" xmlns:xlink="http://www.w3.org/1999/xlink">
    <title>ic_silo_map</title>
    <g id="Page-1" stroke="none" stroke-width="1" fill="none" fill-rule="evenodd">
        <g id="VideoStills" transform="translate(-681.000000, -1467.000000)" fill="#FFFFFF" fill-rule="nonzero">
            <path d="M715.882295,1517 C717.161575,1517 718.388282,1516.66945 719.562416,1516.00835 L730.997079,1509.64092 C732.031018,1509.06681 732.780186,1508.37526 733.244582,1507.56628 C733.708978,1506.75731 733.941176,1505.8048 733.941176,1504.70877 L733.941176,1471.69729 C733.941176,1470.47947 733.568783,1469.50522 732.823997,1468.77453 C732.07921,1468.04384 731.067177,1467.6785 729.787896,1467.6785 C729.24464,1467.6785 728.727671,1467.77853 728.236988,1467.9786 C727.746305,1468.17867 727.185525,1468.45268 726.554647,1468.80063 L714.883404,1475.24635 L702.476138,1467.96555 C701.337052,1467.32185 700.110345,1467 698.796016,1467 C697.53426,1467 696.386413,1467.29576 695.352474,1467.88727 L683.944097,1474.28079 C682.910158,1474.85491 682.160991,1475.52905 681.696594,1476.30324 C681.232198,1477.07742 681,1478.01253 681,1479.10856 L681,1512.27662 C681,1513.51183 681.372393,1514.49043 682.11718,1515.21242 C682.861966,1515.93441 683.874,1516.29541 685.15328,1516.29541 C685.696536,1516.29541 686.217887,1516.19972 686.717332,1516.00835 C687.216777,1515.81698 687.773176,1515.55602 688.38653,1515.22547 L699.68976,1509.0929 L712.123313,1516.00835 C713.35002,1516.66945 714.603014,1517 715.882295,1517 Z M687.449948,1509.15686 C687.071551,1509.15686 686.882353,1508.89387 686.882353,1508.36787 L686.882353,1480.72695 C686.882353,1480.28862 686.955452,1479.94235 687.101651,1479.68812 C687.24785,1479.43389 687.510148,1479.20157 687.888545,1478.99118 L696.01548,1474.23094 C696.135879,1474.17834 696.247678,1474.11697 696.350877,1474.04684 C696.454076,1473.97671 696.565875,1473.91534 696.686275,1473.86275 L696.686275,1504.13363 L688.043344,1508.97277 C687.819745,1509.0955 687.621947,1509.15686 687.449948,1509.15686 Z M712.372549,1509.15686 L712.165158,1509.04738 L712.165158,1509.04738 L711.945199,1508.92501 C711.794369,1508.83914 711.651919,1508.76186 711.517848,1508.69316 L702.568627,1503.54095 L702.568627,1474.84314 C702.685939,1474.91183 702.807441,1474.98053 702.933132,1475.04923 C703.058824,1475.11792 703.180325,1475.19521 703.297637,1475.28108 L712.372549,1480.76818 L712.372549,1509.15686 Z M718.254902,1509.15686 L718.254902,1479.74879 L726.897833,1475.02387 C727.087031,1474.90338 727.25043,1474.84314 727.388029,1474.84314 C727.594427,1474.84314 727.757826,1474.91629 727.878225,1475.0626 C727.998624,1475.20891 728.058824,1475.38534 728.058824,1475.59189 L728.058824,1502.41805 C728.058824,1502.84837 727.985724,1503.18832 727.839525,1503.43791 C727.693326,1503.68749 727.431029,1503.91556 727.052632,1504.12212 L719.364293,1508.5372 C719.192294,1508.64048 719.011696,1508.74806 718.822497,1508.85994 C718.633299,1508.97183 718.4441,1509.0708 718.254902,1509.15686 Z" id="ic_silo_map"></path>
        </g>
    </g>
</svg>
